!!!OTL: IM WALD UND AUF DER HEIDE
!!!ARE: Europa, Mitteleuropa, Deutschland
!!!SCT: F0651
!!!YEM: Copyright 1995, estate of Helmut Schaffrath.
**kern
*ICvox
*Ivox
*M6/8
*k[f#]
*G:
{8g
=1
4g
8a
4a
8b
=2
4.b
8g
8r}
{8a
=3
4a
8b
4b
8cc
=4
4.a
4r}
{8b
=5
4b
8dd
4ee
8dd
=6
4dd
8cc
4b}
{8dd
=7
4b
8b
8a
8b
8a
=8
4.g
4r}
{8d
=9
4.d
4.d
=10
4.d
4r}
{8f#
=11
4f#
8f#
4f#
8f#
=12
4.f#
4r}
{8a
=13
4a
8a
4a
8a
=14
4.dd
4r}
{8d
=15
4g
8g
4a
8a
=16
4b
8dd
4gg}
{8dd
=17
4b
8b
8a
8b
8a
=18
4.g
4r}
==
!!!AGN: Staende -, Jaeger - Lied
!!!ONB: ESAC (Essen Associative Code) Database: FINK
!!!AMT: compound duple
!!!AIN: vox
!!!EED: Helmut Schaffrath
!!!EEV: 1.0
*-
